X:1
T:Tom Jolly's nose
T:Tom Jolly's nose
T:Henry Aldrich (1647-1710)
C:Henry Aldrich (1647-1710)
%%score [ 1 2 3 ]
L:1/8
M:3/4
K:Ab
V:1 treble nm="I"
V:2 treble nm="II"
V:3 treble nm="III"
V:1
|: C2 | F2 G2 A2 | G4 c2 | c3 d B2 | c4 d2 | e3 d c2 | F4 B2 | B4 G2 | G4 G2 | A3 B A2 | G4 C2 | %11
w: Tom|Jol- * ly's|nose I|mean to a-|buse: Thy|jol- ly nose,|Tom, pro-|vokes my|muse; thy|nose, jol- ly|Tom, that|
 F4 B,2 | E4 A,2 | D3 E D2 | C3 B, A,2 | B,2 B,2 C2 | F4 :| %17
w: shines so|bright, I'll|eas- i- ly|fol- low it|by its own|light;|
V:2
|: G2 | A3 G F2 | c2 c2 C2 | F3 A G2 | =E4 G2 | C2 C2 A2 | F3 G A2 | G3 A B2 | B4 B2 | c3 d c2 | %10
w: Thy|nose, _ Tom|Jol- ly, no|jest it will|bear, Al-|though it yields|mat- ter e-|nough and to|spare; But|jol- ly Tom's|
 B4 AG | A3 F d2 | d4 c2 | c3 d B2 | B3 B c2 | A4 G2 | F4 :| %17
w: nose, for _|all he can|do, breeds|worms in it-|self, and in|our heads|too.|
V:3
|: z2 | F6 | E6 | D3 C D2 | C4 B,2 | A,2 B,2 C2 | D3 C =D2 | E4 E2 | E4 E2 | E3 E E2 | E2 B2 c2 | %11
w: |Tom's|nose,|jol- ly Tom's|nose, The|more it is|ban- ter'd, the|more it|glows; Then|drink to Tom|Jol- ly a|
 A2 G2 A2 | G4 F2 | F2 F2 B2 | =E4 F2 | F4 =E2 | F4 :| %17
w: cool- * ing|glass, or|jol- ly Tom's|nose will|fire his|face.|

